X:386
T:Youngest Daughter
Z: id:dc-reel-357
M:C
L:1/8
K:E Dorian
E2BE dEBe|dBAF DEFD|E2BE dEBe|dBAF BEE2:|!
Beef gfed|BdAF DEFA|Beef gfed|BdAF BEE2|!
Beef gfed|BdAF DEFe|afge fdec|dBAF BEE2|]!

